apps/reel-worker/luts/warm.cube
#Created by: Adobe Photoshop Export Color Lookup Plugin
#Copyright: (C) Copyright 2026 Presetpro INC
TITLE "Presetpro - Movie Film.jpg"
#LUT size
LUT_3D_SIZE 5
#data domain
#LUT data points
DOMAIN_MIN 0.000000 0.000000 0.000000
DOMAIN_MAX 0.903226 0.903226 0.903226
0.000000 0.000000 0.000000
0.168213 0.001373 0.000183
0.404419 0.000000 0.000000
0.641693 0.000000 0.000000
0.848663 0.001556 0.000000
0.000000 0.169403 0.003845
0.172791 0.173370 0.004639
0.419586 0.171265 0.001160
0.661987 0.178192 0.000000
0.872650 0.203735 0.000153
0.000031 0.394043 0.006622
0.176361 0.403351 0.013458
0.423798 0.411499 0.013763
0.672485 0.425354 0.001740
0.881866 0.439514 0.007324
0.000000 0.643066 0.031006
0.183777 0.652222 0.040405
0.432678 0.655457 0.044556
0.675079 0.659607 0.045258
0.883759 0.673523 0.050446
0.082825 0.870392 0.094635
0.268372 0.874146 0.098938
0.484863 0.870697 0.097809
0.700745 0.867371 0.093323
0.889496 0.869110 0.094696
0.000000 0.001221 0.149139
0.167908 0.002228 0.150238
0.406250 0.000641 0.143677
0.645020 0.000000 0.139160
0.851471 0.009033 0.141815
0.000092 0.173370 0.158234
0.183136 0.178009 0.160614
0.423981 0.179199 0.159088
0.667236 0.188141 0.158905
0.877106 0.213531 0.167175
0.009155 0.401947 0.169830
0.193756 0.411835 0.175446
0.431274 0.418762 0.177155
0.678558 0.430450 0.173553
0.886322 0.446198 0.180450
0.008179 0.648529 0.196472
0.205658 0.657410 0.204895
0.441376 0.660828 0.209045
0.679626 0.663513 0.209473
0.886505 0.677002 0.213776
0.089478 0.873932 0.254730
0.274414 0.876617 0.257904
0.488831 0.872864 0.256012
0.702911 0.868805 0.251953
0.891205 0.871002 0.252136
0.000061 0.003418 0.348877
0.158295 0.004089 0.350494
0.406494 0.000977 0.346924
0.646820 0.000000 0.340759
0.852173 0.025787 0.356506
0.000153 0.178101 0.358521
0.183899 0.182739 0.363373
0.425812 0.184753 0.364136
0.669678 0.195160 0.367065
0.877869 0.232330 0.386414
0.000427 0.407196 0.368256
0.201599 0.418640 0.377716
0.440796 0.427338 0.382568
0.681000 0.436798 0.385529
0.886963 0.455658 0.394958
0.032898 0.653992 0.394836
0.230255 0.662048 0.403473
0.456482 0.664581 0.405426
0.684174 0.667023 0.405823
0.887695 0.678467 0.409424
0.103333 0.875763 0.442932
0.286163 0.877563 0.443146
0.492279 0.873688 0.437836
0.703033 0.868896 0.434204
0.890594 0.870514 0.434906
0.000061 0.005524 0.561401
0.152802 0.006042 0.562500
0.404358 0.001984 0.557373
0.645264 0.000671 0.555054
0.853912 0.022217 0.560608
0.000061 0.184357 0.569397
0.179230 0.189697 0.574432
0.426056 0.194672 0.575745
0.670044 0.206604 0.580200
0.880402 0.231842 0.589111
0.000244 0.414917 0.575989
0.203125 0.425415 0.585144
0.442749 0.434204 0.588348
0.681549 0.444183 0.592224
0.887238 0.462677 0.601685
0.035828 0.656769 0.591644
0.230713 0.664673 0.599121
0.461395 0.667419 0.600525
0.690796 0.671326 0.601257
0.888916 0.680359 0.606232
0.092743 0.877655 0.627869
0.278107 0.879120 0.629059
0.493256 0.874023 0.624207
0.704224 0.869110 0.619080
0.890625 0.870636 0.619019
0.000336 0.013275 0.745392
0.186401 0.015503 0.745880
0.420227 0.016113 0.740387
0.655273 0.026703 0.738495
0.859467 0.050476 0.747894
0.012878 0.202850 0.754181
0.206848 0.209686 0.759491
0.442810 0.217194 0.760620
0.681213 0.231995 0.764069
0.884796 0.255157 0.774200
0.021606 0.431763 0.760590
0.221039 0.441772 0.768890
0.457672 0.448792 0.770416
0.691254 0.458160 0.773315
0.891479 0.474091 0.782104
0.048981 0.667542 0.772980
0.240906 0.674377 0.779755
0.466003 0.674469 0.779144
0.694244 0.675903 0.778687
0.890259 0.684845 0.783112
0.096558 0.880737 0.798615
0.279999 0.882141 0.799805
0.491669 0.876312 0.794464
0.703156 0.870819 0.788788
0.894165 0.873108 0.789307
