apps/reel-worker/luts/warm.cube
#Created by: Adobe Photoshop Export Color Lookup Plugin
#Copyright: (C) Copyright 2026 Presetpro INC
TITLE "Presetpro - Movie Film.jpg"
#LUT size
LUT_3D_SIZE 8
#data domain
#LUT data points
DOMAIN_MIN 0.000000 0.000000 0.000000
DOMAIN_MAX 0.903226 0.903226 0.903226
0.000000 0.000000 0.000000
0.083221 0.000793 0.000000
0.199371 0.001190 0.000183
0.334808 0.000153 0.000061
0.474030 0.000000 0.000000
0.609344 0.000000 0.000000
0.733856 0.000000 0.000000
0.848663 0.001556 0.000000
0.000031 0.086609 0.001434
0.083099 0.088531 0.001831
0.205353 0.088745 0.000916
0.341309 0.083527 0.000549
0.482574 0.077881 0.000061
0.618958 0.080139 0.000000
0.745300 0.091370 0.000000
0.861969 0.109344 0.000153
0.000000 0.198395 0.004181
0.081848 0.200256 0.005127
0.205994 0.203857 0.005463
0.349884 0.205383 0.003021
0.492767 0.204468 0.001068
0.631683 0.209412 0.000061
0.758789 0.220428 0.000061
0.875458 0.236511 0.000671
0.000061 0.324341 0.005249
0.081696 0.328461 0.008087
0.209259 0.334259 0.010620
0.350800 0.338165 0.010529
0.497650 0.347168 0.006714
0.638397 0.352753 0.000275
0.764740 0.358612 0.000824
0.880035 0.371735 0.004852
0.000031 0.465759 0.009857
0.086151 0.471344 0.014343
0.210846 0.476746 0.018890
0.352600 0.480957 0.019226
0.495422 0.484955 0.018494
0.639679 0.493805 0.014740
0.767914 0.500214 0.009369
0.883514 0.508942 0.010132
0.000000 0.608612 0.025116
0.092651 0.613861 0.029968
0.213745 0.618896 0.035553
0.357635 0.621399 0.037384
0.500305 0.623352 0.037506
0.639801 0.626221 0.037964
0.769440 0.634064 0.040558
0.883575 0.642181 0.042297
0.019379 0.743530 0.056091
0.128876 0.748566 0.062317
0.250122 0.751709 0.065948
0.382935 0.752289 0.068146
0.518341 0.752045 0.067932
0.651947 0.752136 0.067352
0.772980 0.754395 0.068176
0.885010 0.761414 0.072479
0.082825 0.870392 0.094635
0.185669 0.873871 0.097900
0.298828 0.874023 0.099518
0.422607 0.871857 0.098694
0.548004 0.869385 0.096191
0.670807 0.867554 0.093353
0.784637 0.867035 0.093201
0.889496 0.869110 0.094696
0.000000 0.000488 0.075897
0.081787 0.001282 0.076477
0.199982 0.001770 0.075745
0.335541 0.001099 0.073517
0.474579 0.000000 0.068512
0.611115 0.000000 0.063965
0.735748 0.000000 0.061615
0.850037 0.005035 0.060669
0.000000 0.088806 0.082062
0.084808 0.090759 0.082581
0.206512 0.091278 0.082764
0.342743 0.088104 0.078674
0.484100 0.084808 0.075104
0.620636 0.086792 0.072052
0.748322 0.097961 0.072693
0.864349 0.115814 0.073639
0.000000 0.201233 0.087524
0.088074 0.202942 0.087585
0.211426 0.206055 0.089539
0.353973 0.207977 0.087799
0.495880 0.208618 0.084534
0.634491 0.214569 0.083649
0.761810 0.225433 0.084229
0.877808 0.241241 0.085876
0.000275 0.328094 0.089691
0.090271 0.333008 0.093781
0.215546 0.338074 0.098389
0.354950 0.341827 0.098419
0.500702 0.350220 0.095428
0.641327 0.355469 0.090546
0.767731 0.362518 0.089966
0.882599 0.375336 0.091370
0.000061 0.470215 0.098785
0.088898 0.475098 0.103973
0.218445 0.480804 0.109283
0.357544 0.484467 0.109650
0.498993 0.488312 0.109558
0.642700 0.497070 0.106964
0.770966 0.503418 0.105377
0.885956 0.511749 0.106140
0.000336 0.611694 0.114716
0.095367 0.616791 0.120026
0.223419 0.621887 0.125702
0.362915 0.624207 0.128296
0.504364 0.626526 0.127747
0.642944 0.628876 0.128693
0.771332 0.636749 0.131165
0.885498 0.644531 0.133118
0.029022 0.746368 0.145325
0.137238 0.750732 0.151001
0.256500 0.754395 0.154907
0.387238 0.754486 0.156769
0.522125 0.754395 0.156128
0.654510 0.754517 0.155426
0.774963 0.756104 0.156494
0.886566 0.762970 0.160309
0.085999 0.872559 0.182831
0.188507 0.875366 0.186066
0.301758 0.875641 0.186951
0.424866 0.873352 0.185516
0.549927 0.871002 0.183350
0.672302 0.868835 0.180542
0.785583 0.868530 0.180786
0.890411 0.870331 0.181183
0.000000 0.001404 0.174988
0.078278 0.002045 0.175903
0.199799 0.002319 0.176056
0.338043 0.000916 0.170807
0.476105 0.000031 0.167847
0.612152 0.000000 0.165863
0.737000 0.000000 0.166321
0.852112 0.011139 0.170471
0.000061 0.091431 0.180420
0.083893 0.093201 0.180664
0.207184 0.093750 0.180573
0.345184 0.090790 0.178284
0.484833 0.091461 0.176575
0.622864 0.095001 0.175598
0.750366 0.106049 0.179291
0.867279 0.123016 0.185303
0.000092 0.202942 0.184692
0.095001 0.205902 0.186127
0.218292 0.209747 0.188904
0.357056 0.210205 0.188385
0.498535 0.213470 0.188049
0.637329 0.220062 0.188385
0.763794 0.231628 0.192230
0.880219 0.247559 0.198975
0.003937 0.332428 0.188690
0.106720 0.337677 0.194366
0.226166 0.343140 0.197845
0.361389 0.346527 0.198486
0.505951 0.353882 0.196838
0.644592 0.358185 0.195740
0.770447 0.367096 0.199066
0.885284 0.379944 0.204407
0.013306 0.474915 0.202942
0.116547 0.480560 0.207916
0.229248 0.485260 0.209320
0.363739 0.488770 0.210999
0.503510 0.492401 0.211090
0.646729 0.500153 0.210022
0.773865 0.506287 0.210388
0.887909 0.514740 0.214355
0.015594 0.616211 0.219238
0.117859 0.621216 0.222565
0.235504 0.625793 0.226349
0.370605 0.627289 0.230194
0.509094 0.629333 0.229980
0.646149 0.631653 0.229919
0.773773 0.638916 0.232513
0.887482 0.646454 0.234650
0.046082 0.749359 0.246368
0.148804 0.753845 0.250854
0.265045 0.756622 0.253632
0.394745 0.756287 0.255127
0.526459 0.755890 0.254944
0.656586 0.755524 0.254120
0.775818 0.757324 0.254303
0.886810 0.764038 0.258362
0.090454 0.873901 0.279236
0.192352 0.876709 0.282471
0.305237 0.876617 0.283478
0.427155 0.874542 0.281647
0.551392 0.871490 0.280273
0.673584 0.869202 0.277435
0.786499 0.869110 0.276794
0.891144 0.870789 0.277252
0.000275 0.002655 0.287323
0.078827 0.003296 0.289581
0.197083 0.003510 0.288849
0.337433 0.001770 0.286469
0.478424 0.000031 0.281738
0.613800 0.000000 0.279297
0.737915 0.003174 0.284546
0.852356 0.021179 0.293213
0.000061 0.094330 0.293701
0.082672 0.095734 0.293610
0.207947 0.095917 0.295349
0.345947 0.093109 0.293823
0.487427 0.088135 0.290588
0.624542 0.095612 0.290924
0.751465 0.115204 0.300323
0.868195 0.133972 0.309784
0.000031 0.205688 0.298004
0.094849 0.208801 0.300262
0.220001 0.212891 0.303986
0.358398 0.213623 0.305023
0.500275 0.216187 0.305054
0.637604 0.227295 0.309021
0.764526 0.241058 0.315460
0.881195 0.256531 0.323425
0.000732 0.335114 0.302795
0.105896 0.340576 0.308197
0.230072 0.347168 0.312500
0.367706 0.352417 0.315552
0.508514 0.357422 0.316406
0.645935 0.363495 0.318146
0.771271 0.372986 0.322052
0.885742 0.386719 0.328857
0.005096 0.478271 0.314087
0.114777 0.484406 0.320557
0.239563 0.489746 0.325409
0.371857 0.492981 0.327209
0.509216 0.496307 0.327362
0.649689 0.502777 0.327820
0.775482 0.507935 0.329834
0.888489 0.518066 0.336029
0.027008 0.618835 0.333069
0.134888 0.624451 0.338715
0.256104 0.628204 0.342896
0.380798 0.630341 0.342224
0.515228 0.631866 0.344513
0.649384 0.634094 0.344086
0.775024 0.640778 0.346375
0.888092 0.647491 0.348358
0.065399 0.751373 0.359741
0.169891 0.755524 0.364563
0.280243 0.757935 0.365143
0.402924 0.757812 0.364014
0.531891 0.756866 0.364166
0.659424 0.756683 0.363220
0.777130 0.758148 0.363068
0.887024 0.764496 0.365387
0.100098 0.874908 0.387939
0.200134 0.877441 0.389801
0.309723 0.876892 0.389191
0.430145 0.874847 0.386292
0.553131 0.871765 0.384796
0.674255 0.869385 0.382080
0.786163 0.868896 0.381042
0.890381 0.870636 0.381683
0.000061 0.004028 0.410706
0.078461 0.004456 0.411163
0.191345 0.004211 0.411102
0.335022 0.002289 0.409088
0.475769 0.000122 0.406982
0.613220 0.000000 0.403473
0.738312 0.000000 0.403961
0.852783 0.023895 0.414032
0.000031 0.097198 0.415344
0.082581 0.097778 0.417511
0.204102 0.098511 0.417908
0.344421 0.096649 0.416473
0.485016 0.095398 0.416138
0.625427 0.095490 0.415985
0.752563 0.110931 0.419434
0.868927 0.139343 0.432648
0.000031 0.208893 0.419739
0.088440 0.212311 0.423065
0.219208 0.215973 0.426697
0.357819 0.218170 0.428406
0.499176 0.221527 0.429810
0.640289 0.225494 0.431305
0.765961 0.242889 0.437012
0.880157 0.266663 0.449097
0.000305 0.337891 0.425201
0.103607 0.344452 0.430176
0.230316 0.350861 0.434601
0.367584 0.356232 0.437744
0.508301 0.360718 0.440002
0.646210 0.366730 0.440887
0.769562 0.381195 0.448151
0.883698 0.396454 0.456085
0.000275 0.480286 0.433716
0.112732 0.486389 0.438721
0.237732 0.492157 0.443939
0.374969 0.496307 0.445465
0.514801 0.500610 0.447723
0.651123 0.505676 0.449860
0.775208 0.513092 0.453705
0.888184 0.523041 0.459412
0.017273 0.620728 0.445282
0.127380 0.627106 0.451935
0.252411 0.631104 0.455994
0.389679 0.632111 0.457642
0.523041 0.634521 0.459320
0.653412 0.635925 0.459229
0.776672 0.641968 0.460266
0.889069 0.647827 0.463135
0.061310 0.753448 0.467926
0.166260 0.756805 0.472870
0.283447 0.759247 0.474884
0.413239 0.758636 0.475494
0.536896 0.758057 0.473206
0.662231 0.757629 0.473145
0.777954 0.758972 0.471924
0.887329 0.764923 0.473755
0.098572 0.875580 0.494110
0.201141 0.878021 0.496521
0.315613 0.877350 0.496826
0.435333 0.875122 0.493896
0.554504 0.871948 0.489594
0.674255 0.869751 0.487854
0.786072 0.869080 0.486877
0.890320 0.870483 0.487610
0.000153 0.005280 0.532806
0.078400 0.005554 0.533112
0.185303 0.005219 0.532654
0.333893 0.002960 0.530090
0.473999 0.000397 0.527618
0.611908 0.000000 0.526093
0.738617 0.002350 0.526642
0.853241 0.020508 0.531158
0.000000 0.100067 0.536835
0.082764 0.100464 0.538544
0.199707 0.102142 0.539612
0.343445 0.100708 0.537720
0.484741 0.102386 0.537323
0.624542 0.106323 0.538696
0.752838 0.116028 0.542053
0.870148 0.136688 0.548981
0.000031 0.213104 0.541290
0.088318 0.216400 0.544464
0.217773 0.220428 0.547546
0.358002 0.223083 0.548645
0.499969 0.228577 0.550903
0.639404 0.234955 0.553314
0.766907 0.245331 0.556885
0.881805 0.264435 0.563843
0.000183 0.343201 0.544647
0.101929 0.349579 0.549286
0.230774 0.356232 0.554016
0.368225 0.361084 0.556519
0.508118 0.366150 0.557800
0.645569 0.372498 0.559814
0.772003 0.380829 0.563660
0.885071 0.397156 0.570496
0.002289 0.483948 0.550537
0.115356 0.490082 0.556885
0.239746 0.495209 0.560944
0.376404 0.498871 0.561981
0.515930 0.503998 0.563995
0.651886 0.509033 0.566284
0.775299 0.515594 0.569336
0.887268 0.528351 0.577576
0.026093 0.621887 0.561035
0.134583 0.628265 0.565216
0.255371 0.631989 0.569366
0.389679 0.634094 0.570618
0.525757 0.636047 0.570587
0.657684 0.639191 0.572266
0.778107 0.643738 0.575012
0.888367 0.650177 0.577881
0.057220 0.755066 0.578491
0.161987 0.759064 0.581970
0.278992 0.761108 0.583954
0.408813 0.760376 0.583344
0.540680 0.758972 0.582062
0.664734 0.759155 0.581238
0.779877 0.760406 0.581726
0.888733 0.765228 0.581940
0.094421 0.877075 0.600708
0.195038 0.879272 0.603363
0.309174 0.878296 0.602295
0.431885 0.875397 0.599884
0.557953 0.871887 0.596802
0.675598 0.869598 0.593658
0.786285 0.869568 0.593353
0.890656 0.870667 0.593689
0.000000 0.007263 0.644836
0.079010 0.007507 0.645020
0.194641 0.007263 0.644562
0.337646 0.004486 0.641022
0.476257 0.002228 0.638031
0.613434 0.008331 0.637177
0.739746 0.016510 0.639160
0.854095 0.030945 0.644562
0.000366 0.104889 0.649017
0.083496 0.106476 0.650391
0.207306 0.108276 0.650879
0.348267 0.108429 0.649384
0.488770 0.111969 0.649048
0.627533 0.119843 0.650909
0.755768 0.130798 0.655365
0.870880 0.146240 0.661652
0.000092 0.219879 0.652832
0.092468 0.223511 0.655792
0.224426 0.228485 0.659271
0.363098 0.231934 0.660583
0.503174 0.237579 0.661682
0.641937 0.246582 0.664154
0.768188 0.257477 0.668701
0.882050 0.270874 0.674133
0.001617 0.351318 0.655762
0.111420 0.357147 0.661072
0.236969 0.364136 0.665619
0.373199 0.368378 0.666992
0.512024 0.373108 0.667725
0.648346 0.380646 0.669861
0.772888 0.389648 0.673981
0.886200 0.400238 0.679810
0.011749 0.489441 0.661438
0.121399 0.495148 0.666168
0.243805 0.500488 0.669769
0.381104 0.503784 0.671570
0.519440 0.508240 0.672913
0.654602 0.513672 0.674805
0.776764 0.520844 0.678589
0.889282 0.528564 0.683441
0.033630 0.626892 0.669769
0.139893 0.631165 0.674652
0.259705 0.635498 0.677429
0.392517 0.637024 0.678162
0.526520 0.638702 0.678162
0.659668 0.640930 0.679199
0.778748 0.645691 0.681122
0.888275 0.651886 0.684479
0.063324 0.756104 0.683044
0.168152 0.759857 0.687531
0.283173 0.761963 0.689209
0.410797 0.761414 0.688293
0.540344 0.760406 0.686554
0.666138 0.760071 0.685089
0.782440 0.762115 0.685883
0.890228 0.765625 0.687958
0.091125 0.878479 0.704163
0.192413 0.880341 0.705109
0.305298 0.879700 0.704712
0.427338 0.876770 0.701416
0.552338 0.873260 0.697784
0.675537 0.870331 0.694794
0.787354 0.870209 0.693787
0.891479 0.871765 0.694611
0.000336 0.013275 0.745392
0.095398 0.014832 0.745331
0.217987 0.015381 0.744904
0.351715 0.015167 0.741943
0.487457 0.017487 0.738617
0.623535 0.024048 0.738190
0.746887 0.037170 0.742035
0.859467 0.050476 0.747894
0.004852 0.116699 0.749695
0.106445 0.118988 0.751801
0.228119 0.121490 0.751953
0.362640 0.123138 0.751160
0.500732 0.127899 0.750977
0.637695 0.136627 0.753082
0.763245 0.151093 0.758606
0.876312 0.164551 0.764740
0.014862 0.233917 0.754761
0.120300 0.238007 0.758209
0.241638 0.242432 0.761780
0.376862 0.246765 0.762054
0.515564 0.252380 0.763458
0.650970 0.261536 0.765228
0.774323 0.274078 0.769958
0.886292 0.285645 0.775635
0.021454 0.365387 0.758240
0.130157 0.371216 0.763458
0.251129 0.376678 0.767151
0.385956 0.380341 0.767731
0.523132 0.385040 0.768829
0.657013 0.391479 0.770416
0.778870 0.401245 0.774506
0.890228 0.411377 0.780609
0.025879 0.499420 0.762817
0.133911 0.504456 0.768005
0.254730 0.509155 0.771423
0.391174 0.512543 0.772522
0.527954 0.516174 0.773315
0.661499 0.520630 0.774780
0.781769 0.528351 0.778259
0.891663 0.536438 0.783142
0.042419 0.634277 0.770294
0.148773 0.639099 0.774780
0.266357 0.642303 0.777588
0.396759 0.642975 0.777863
0.530304 0.642944 0.777008
0.663025 0.645477 0.777924
0.781891 0.650116 0.780243
0.890533 0.656128 0.783020
0.069153 0.762390 0.783569
0.172089 0.766205 0.787231
0.287018 0.767487 0.788330
0.412903 0.766174 0.786560
0.540405 0.764160 0.784119
0.665497 0.762421 0.781616
0.782318 0.763916 0.782349
0.890320 0.768188 0.784271
0.096558 0.880737 0.798615
0.197754 0.882263 0.800598
0.308807 0.881348 0.799622
0.430054 0.877991 0.796417
0.553314 0.874725 0.792694
0.674072 0.871704 0.789337
0.787415 0.871246 0.788147
0.894165 0.873108 0.789307
