apps/reel-worker/luts/warm.cube
#Created by: Adobe Photoshop Export Color Lookup Plugin
#Copyright: (C) Copyright 2026 Presetpro INC
TITLE "Presetpro - Movie Film.jpg"
#LUT size
LUT_3D_SIZE 32
#data domain
DOMAIN_MIN 0.0 0.0 0.0
DOMAIN_MAX 1.0 1.0 1.0
#LUT data points
0.000000 0.000000 0.000000
0.006744 0.000153 0.000122
0.031189 0.000305 0.000122
0.056519 0.000458 0.000000
0.083221 0.000793 0.000000
0.109650 0.001190 0.000122
0.138794 0.001160 0.000031
0.168213 0.001373 0.000183
0.199371 0.001190 0.000183
0.232025 0.000977 0.000092
0.265381 0.000732 0.000153
0.299927 0.000397 0.000122
0.334808 0.000153 0.000061
0.369812 0.000031 0.000000
0.404419 0.000000 0.000000
0.439606 0.000000 0.000000
0.474030 0.000000 0.000000
0.508636 0.000000 0.000000
0.542755 0.000000 0.000000
0.576477 0.000000 0.000000
0.609344 0.000000 0.000000
0.641693 0.000000 0.000000
0.673798 0.000000 0.000000
0.704742 0.000000 0.000000
0.733856 0.000000 0.000000
0.763458 0.000000 0.000000
0.791870 0.000000 0.000000
0.820984 0.000000 0.000000
0.848663 0.001556 0.000000
0.875305 0.005707 0.000000
0.902161 0.010010 0.000000
0.927612 0.014496 0.000061
0.000000 0.007324 0.000000
0.007172 0.007690 0.000153
0.030914 0.008026 0.000153
0.056915 0.008911 0.000305
0.083740 0.009583 0.000031
0.111694 0.010437 0.000153
0.139801 0.010559 0.000092
0.170563 0.010986 0.000214
0.201782 0.010071 0.000092
0.234467 0.008850 0.000214
0.267212 0.007080 0.000153
0.301239 0.005341 0.000061
0.336060 0.003296 0.000061
0.371033 0.001923 0.000000
0.406128 0.000732 0.000000
0.441345 0.000275 0.000000
0.475800 0.000244 0.000000
0.509888 0.000244 0.000000
0.543823 0.000244 0.000000
0.577942 0.000244 0.000000
0.611664 0.000275 0.000000
0.644440 0.000336 0.000000
0.675964 0.002960 0.000000
0.706665 0.005737 0.000000
0.736084 0.008972 0.000000
0.766083 0.012238 0.000000
0.794586 0.016418 0.000000
0.823334 0.020111 0.000000
0.850861 0.024750 0.000000
0.878998 0.030457 0.000153
0.904968 0.035370 0.000092
0.930145 0.040619 0.000000
0.000000 0.033112 0.000580
0.008240 0.033478 0.000610
0.030518 0.034546 0.000519
0.056702 0.035187 0.000641
0.083984 0.035736 0.000122
0.111969 0.036316 0.000275
0.140259 0.036285 0.000305
0.170929 0.036285 0.000153
0.202118 0.035797 0.000214
0.235138 0.034607 0.000244
0.268311 0.032959 0.000183
0.302979 0.030609 0.000092
0.337677 0.028259 0.000061
0.372681 0.025635 0.000031
0.407379 0.023499 0.000031
0.442596 0.021484 0.000000
0.476898 0.020020 0.000000
0.511627 0.019440 0.000000
0.546112 0.019104 0.000000
0.579681 0.019287 0.000000
0.612915 0.020660 0.000000
0.646057 0.022491 0.000000
0.677979 0.025604 0.000000
0.709015 0.028839 0.000000
0.738861 0.032959 0.000000
0.768341 0.037323 0.000000
0.797485 0.042267 0.000000
0.825500 0.046387 0.000000
0.853973 0.052307 0.000000
0.882233 0.057983 0.000153
0.908417 0.063080 0.000031
0.934143 0.067993 0.000000
0.000031 0.060394 0.000885
0.008972 0.060577 0.000916
0.031189 0.060211 0.000916
0.056458 0.061218 0.001221
0.083435 0.062805 0.000946
0.111908 0.062561 0.000763
0.141754 0.062744 0.000549
0.172089 0.062347 0.000641
0.203461 0.061584 0.000458
0.236542 0.060730 0.000336
0.269714 0.059540 0.000427
0.304596 0.057556 0.000427
0.338989 0.055695 0.000336
0.374084 0.053650 0.000153
0.409363 0.051514 0.000122
0.444366 0.049622 0.000031
0.479553 0.048218 0.000000
0.513519 0.047791 0.000000
0.547791 0.047729 0.000000
0.582214 0.048340 0.000000
0.615631 0.049622 0.000000
0.648285 0.052002 0.000000
0.680542 0.055206 0.000031
0.711243 0.057922 0.000000
0.741638 0.061829 0.000061
0.771454 0.065247 0.000000
0.800507 0.070709 0.000031
0.829681 0.075134 0.000183
0.858002 0.080658 0.000031
0.886444 0.086456 0.000153
0.912262 0.091248 0.000031
0.937866 0.097260 0.000244
0.000031 0.086609 0.001434
0.009796 0.087189 0.001740
0.031769 0.086975 0.001587
0.056030 0.087555 0.001801
0.083099 0.088531 0.001831
0.112183 0.089203 0.001617
0.141754 0.090271 0.001373
0.174255 0.089386 0.001007
0.205353 0.088745 0.000916
0.238220 0.087433 0.000732
0.271576 0.086060 0.000732
0.306366 0.084686 0.000549
0.341309 0.083527 0.000549
0.376587 0.081512 0.000336
0.411377 0.080048 0.000183
0.446747 0.079041 0.000122
0.482574 0.077881 0.000061
0.516998 0.077423 0.000031
0.550873 0.077698 0.000000
0.585266 0.078674 0.000000
0.618958 0.080139 0.000000
0.652283 0.082153 0.000000
0.684387 0.084747 0.000031
0.714752 0.087708 0.000000
0.745300 0.091370 0.000000
0.775330 0.095398 0.000000
0.804230 0.100311 0.000000
0.833496 0.104736 0.000092
0.861969 0.109344 0.000153
0.890503 0.115509 0.000214
0.916534 0.120850 0.000214
0.942413 0.126709 0.000061
0.000183 0.113861 0.002380
0.010590 0.114075 0.002472
0.032501 0.114136 0.002502
0.056641 0.115051 0.002472
0.082336 0.115448 0.002747
0.111237 0.115906 0.002563
0.141846 0.117493 0.002563
0.174561 0.117401 0.002136
0.206787 0.116913 0.001648
0.239838 0.115753 0.001343
0.274200 0.114288 0.001282
0.309143 0.112701 0.001038
0.344238 0.111908 0.000763
0.379242 0.110352 0.000610
0.414368 0.109528 0.000488
0.449646 0.108582 0.000336
0.484528 0.108429 0.000122
0.519562 0.108459 0.000031
0.554260 0.108765 0.000031
0.588989 0.109344 0.000031
0.622772 0.110962 0.000000
0.655640 0.113098 0.000000
0.687317 0.115784 0.000092
0.717712 0.118591 0.000031
0.748993 0.121948 0.000031
0.778778 0.125732 0.000031
0.808197 0.131012 0.000122
0.836975 0.134979 0.000031
0.865845 0.140259 0.000000
0.893951 0.145752 0.000061
0.920410 0.151154 0.000031
0.946075 0.156952 0.000061
0.000000 0.141083 0.003143
0.010681 0.141632 0.003357
0.032867 0.141754 0.003113
0.057190 0.142029 0.003235
0.081573 0.142517 0.003571
0.110260 0.143036 0.003601
0.141449 0.144012 0.003601
0.173248 0.145111 0.003296
0.207275 0.145599 0.002686
0.240906 0.144562 0.002289
0.275665 0.143921 0.001801
0.311218 0.142548 0.001312
0.346771 0.141815 0.001312
0.382324 0.140350 0.001038
0.417114 0.139832 0.000732
0.452148 0.139191 0.000427
0.487305 0.139465 0.000366
0.522400 0.139526 0.000244
0.557678 0.140350 0.000153
0.592346 0.141541 0.000214
0.625641 0.142914 0.000031
0.658600 0.145081 0.000000
0.690552 0.148041 0.000000
0.721649 0.150970 0.000031
0.752533 0.153564 0.000153
0.782440 0.157471 0.000122
0.811646 0.162262 0.000214
0.840668 0.166718 0.000183
0.869598 0.172119 0.000000
0.897949 0.177032 0.000031
0.924042 0.181976 0.000061
0.950134 0.187775 0.001038
0.000000 0.169403 0.003845
0.010834 0.169708 0.004028
0.033234 0.169922 0.004150
0.057373 0.170380 0.004242
0.081757 0.170654 0.004395
0.108124 0.171692 0.004517
0.140350 0.171844 0.004547
0.172791 0.173370 0.004639
0.207336 0.174042 0.004181
0.242310 0.174164 0.003693
0.276794 0.174042 0.003021
0.312531 0.173279 0.002167
0.349152 0.172516 0.001923
0.384674 0.172272 0.001434
0.419586 0.171265 0.001160
0.455109 0.170990 0.000854
0.490112 0.171051 0.000763
0.524963 0.171692 0.000336
0.560242 0.172668 0.000122
0.595215 0.173950 0.000031
0.628937 0.176147 0.000061
0.661987 0.178192 0.000000
0.694275 0.180908 0.000092
0.725342 0.183380 0.000000
0.755829 0.186737 0.000031
0.785797 0.190277 0.000031
0.814880 0.194855 0.000031
0.843933 0.199219 0.000061
0.872650 0.203735 0.000153
0.900482 0.208893 0.000153
0.927063 0.213928 0.000366
0.953033 0.218903 0.001587
0.000000 0.198395 0.004181
0.010620 0.198883 0.004456
0.033112 0.198730 0.004486
0.057556 0.199127 0.005066
0.081848 0.200256 0.005127
0.107697 0.201141 0.005066
0.140198 0.201355 0.005432
0.172699 0.202698 0.005615
0.205994 0.203857 0.005463
0.241699 0.204407 0.005188
0.277771 0.205170 0.004700
0.314270 0.205078 0.004211
0.349884 0.205383 0.003021
0.386566 0.204681 0.002655
0.422089 0.205109 0.001770
0.457367 0.204681 0.001129
0.492767 0.204468 0.001068
0.527771 0.205048 0.000488
0.563385 0.205994 0.000275
0.598114 0.207764 0.000031
0.631683 0.209412 0.000061
0.665222 0.211945 0.000000
0.697296 0.214203 0.000031
0.728455 0.217224 0.000153
0.758789 0.220428 0.000061
0.788757 0.223816 0.000000
0.817780 0.227844 0.000122
0.846832 0.232422 0.000488
0.875458 0.236511 0.000671
0.903137 0.241333 0.001556
0.929688 0.246429 0.002655
0.955048 0.251190 0.003967
0.000000 0.227936 0.004700
0.010315 0.228760 0.005127
0.032715 0.229187 0.005371
0.057526 0.229370 0.005829
0.082092 0.230042 0.006226
0.107574 0.231628 0.006012
0.139893 0.232971 0.006775
0.172882 0.233246 0.006470
0.206482 0.234497 0.006744
0.240143 0.234741 0.006195
0.277588 0.236298 0.006042
0.314392 0.237000 0.005737
0.350616 0.237885 0.004700
0.386932 0.238647 0.004303
0.423462 0.239105 0.003418
0.459198 0.239258 0.002289
0.495667 0.239410 0.001282
0.530548 0.240173 0.000763
0.565552 0.241089 0.000519
0.600311 0.242004 0.000122
0.634125 0.243713 0.000031
0.667328 0.245911 0.000031
0.699768 0.248871 0.000031
0.731049 0.251312 0.000122
0.761078 0.254608 0.000092
0.791046 0.257812 0.000000
0.820160 0.261902 0.000061
0.849121 0.265991 0.000641
0.877441 0.269775 0.001526
0.905365 0.274475 0.003174
0.931580 0.279602 0.004883
0.957031 0.283691 0.005890
0.000122 0.258759 0.004883
0.009827 0.259430 0.005310
0.032745 0.260406 0.005798
0.057404 0.261383 0.005890
0.082245 0.261780 0.006683
0.107574 0.263428 0.006805
0.140656 0.264435 0.007507
0.173798 0.265381 0.007477
0.207397 0.266571 0.007874
0.241486 0.266846 0.007660
0.276611 0.267822 0.007568
0.313629 0.269531 0.007385
0.352295 0.271576 0.006683
0.388367 0.272430 0.006042
0.423889 0.273865 0.004974
0.460022 0.274902 0.003845
0.496582 0.275452 0.002289
0.532196 0.276001 0.001251
0.567322 0.277344 0.000549
0.602051 0.278168 0.000122
0.636047 0.279236 0.000214
0.669037 0.280731 0.000092
0.701447 0.283539 0.000092
0.732758 0.286133 0.000305
0.762909 0.289581 0.000061
0.792877 0.292480 0.000183
0.822174 0.296204 0.000366
0.850616 0.299835 0.001343
0.878326 0.303619 0.002777
0.906403 0.307953 0.004395
0.932617 0.312714 0.005859
0.958160 0.316223 0.007202
0.000031 0.291046 0.005005
0.009399 0.292023 0.005646
0.031891 0.293152 0.006195
0.056793 0.293793 0.006744
0.081696 0.294617 0.007263
0.107697 0.295715 0.007782
0.141541 0.297363 0.008820
0.174469 0.298950 0.008881
0.208405 0.300049 0.009308
0.243011 0.300629 0.009186
0.277039 0.301483 0.009094
0.313873 0.302582 0.009033
0.351349 0.304260 0.008667
0.388824 0.307037 0.008148
0.424713 0.309021 0.007080
0.460907 0.310333 0.005798
0.497314 0.310852 0.004150
0.533478 0.312592 0.002869
0.568481 0.313660 0.000824
0.603333 0.314880 0.000244
0.637878 0.316223 0.000366
0.670837 0.317139 0.000153
0.702759 0.318542 0.000031
0.734314 0.320892 0.000122
0.763855 0.324005 0.000458
0.793579 0.327057 0.000397
0.823029 0.330353 0.001221
0.851166 0.333801 0.002533
0.879272 0.337860 0.003906
0.907318 0.341614 0.005554
0.933838 0.345886 0.007080
0.959595 0.349487 0.008026
0.000061 0.324341 0.005249
0.009125 0.325317 0.005859
0.031708 0.326630 0.006531
0.056702 0.327881 0.007385
0.081696 0.328461 0.008087
0.108276 0.329742 0.008728
0.141632 0.331421 0.009827
0.175537 0.333130 0.010345
0.209259 0.334259 0.010620
0.243835 0.335419 0.010742
0.278748 0.336334 0.010376
0.314362 0.337128 0.010101
0.350800 0.338165 0.010529
0.387634 0.340118 0.009979
0.424774 0.343628 0.009430
0.460968 0.345673 0.008484
0.497650 0.347168 0.006714
0.533600 0.348846 0.005096
0.569153 0.350220 0.002716
0.604034 0.351227 0.001007
0.638397 0.352753 0.000275
0.672089 0.354370 0.000366
0.703613 0.355469 0.000061
0.734619 0.356628 0.000153
0.764740 0.358612 0.000824
0.794708 0.361938 0.000580
0.823669 0.364960 0.001984
0.852081 0.368073 0.003510
0.880035 0.371735 0.004852
0.908112 0.375336 0.006439
0.934875 0.379486 0.008118
0.960724 0.383087 0.009064
0.000092 0.358917 0.005676
0.009430 0.360016 0.006592
0.032410 0.360901 0.007355
0.057343 0.361877 0.008209
0.082184 0.363495 0.009003
0.108276 0.364868 0.009735
0.141754 0.366577 0.011200
0.176483 0.367889 0.011688
0.210480 0.369324 0.012329
0.244965 0.370758 0.012451
0.279816 0.372040 0.012207
0.315002 0.372620 0.011627
0.351776 0.373840 0.012421
0.387665 0.374847 0.011871
0.423492 0.376587 0.011169
0.461121 0.380402 0.010681
0.497833 0.382843 0.009766
0.533539 0.384521 0.007965
0.568878 0.386017 0.005524
0.604065 0.387482 0.003052
0.638672 0.388489 0.000824
0.672028 0.389801 0.000275
0.704315 0.391235 0.000366
0.735474 0.392670 0.000061
0.765533 0.394379 0.000397
0.795502 0.396484 0.001526
0.824646 0.399017 0.002930
0.853210 0.402435 0.004852
0.881134 0.405457 0.006195
0.909088 0.408936 0.007660
0.935944 0.412994 0.009186
0.961975 0.416351 0.010376
0.000031 0.394043 0.006622
0.010010 0.395294 0.007660
0.033081 0.396545 0.008636
0.058411 0.397675 0.009460
0.083282 0.398590 0.010437
0.108978 0.400482 0.011353
0.141876 0.402161 0.012909
0.176361 0.403351 0.013458
0.211243 0.405396 0.014160
0.245728 0.406433 0.014221
0.281067 0.407837 0.014618
0.316498 0.408630 0.014313
0.351929 0.409821 0.014252
0.387848 0.410278 0.014160
0.423798 0.411499 0.013763
0.459503 0.412994 0.013184
0.497162 0.417572 0.012421
0.533875 0.419556 0.011078
0.569489 0.421021 0.008942
0.604340 0.422638 0.006958
0.639008 0.423981 0.004089
0.672485 0.425354 0.001740
0.704529 0.427002 0.000580
0.736115 0.428436 0.000580
0.766602 0.430237 0.001312
0.796265 0.431946 0.002655
0.825348 0.434235 0.004272
0.853577 0.436737 0.005707
0.881866 0.439514 0.007324
0.910034 0.443268 0.008820
0.937164 0.446533 0.010498
0.963165 0.449799 0.011749
0.000000 0.429596 0.007935
0.011108 0.431122 0.009125
0.034210 0.432343 0.010254
0.059631 0.433777 0.011169
0.084442 0.435059 0.012024
0.110199 0.436249 0.013092
0.140381 0.437927 0.014435
0.176361 0.439117 0.015686
0.211517 0.441101 0.016266
0.246429 0.442413 0.016876
0.281616 0.443390 0.016998
0.317383 0.444397 0.016754
0.352631 0.445587 0.016479
0.388214 0.446777 0.016205
0.423584 0.447113 0.016052
0.459381 0.448547 0.015808
0.495697 0.450043 0.015533
0.533142 0.453796 0.014832
0.569672 0.455902 0.012878
0.604797 0.457397 0.010986
0.639435 0.459351 0.009521
0.672821 0.460785 0.007172
0.705109 0.462036 0.004425
0.736206 0.463684 0.003021
0.767578 0.465057 0.003204
0.797272 0.467072 0.004089
0.826416 0.469208 0.005524
0.854797 0.471985 0.007050
0.882538 0.474213 0.008362
0.910187 0.477081 0.009888
0.937836 0.480194 0.011841
0.964081 0.482758 0.012817
0.000031 0.465759 0.009857
0.012146 0.467255 0.010956
0.035553 0.468750 0.012085
0.060608 0.470215 0.013245
0.086151 0.471344 0.014343
0.111389 0.472656 0.015686
0.138977 0.474396 0.016479
0.175018 0.475433 0.018036
0.210846 0.476746 0.018890
0.246094 0.478271 0.019714
0.281494 0.479401 0.020111
0.317444 0.480255 0.019989
0.352600 0.480957 0.019226
0.388580 0.481720 0.019043
0.423615 0.482849 0.018921
0.459412 0.483887 0.018524
0.495422 0.484955 0.018494
0.531616 0.486603 0.017914
0.569458 0.489685 0.017517
0.604889 0.492432 0.016571
0.639679 0.493805 0.014740
0.673157 0.495148 0.013458
0.705963 0.496765 0.011963
0.737457 0.498840 0.011261
0.767914 0.500214 0.009369
0.797485 0.501953 0.008392
0.826996 0.504211 0.008087
0.855560 0.507019 0.008911
0.883514 0.508942 0.010132
0.911316 0.511749 0.011322
0.938812 0.514252 0.012695
0.964874 0.516937 0.013519
0.000275 0.502197 0.011932
0.013428 0.503296 0.012939
0.036926 0.504944 0.014313
0.062012 0.506439 0.015656
0.087372 0.507019 0.016327
0.112885 0.508759 0.018219
0.138824 0.510010 0.019379
0.173035 0.511169 0.021240
0.209595 0.512268 0.021698
0.245361 0.513947 0.022766
0.281281 0.514771 0.023102
0.317169 0.515808 0.023102
0.353363 0.516357 0.022217
0.388641 0.517334 0.022369
0.424133 0.518494 0.022614
0.459534 0.518921 0.022308
0.495972 0.520508 0.021942
0.531799 0.521423 0.021454
0.568207 0.522919 0.021240
0.605164 0.525452 0.021545
0.639313 0.528076 0.020905
0.673309 0.529694 0.019714
0.705902 0.531036 0.018860
0.737915 0.533173 0.018829
0.768402 0.535004 0.018188
0.798431 0.536743 0.017578
0.827148 0.538910 0.016663
0.855133 0.541443 0.016510
0.883881 0.543427 0.015198
0.911560 0.545807 0.014343
0.939270 0.548462 0.014832
0.965607 0.550751 0.015411
0.000275 0.537903 0.015320
0.014771 0.539459 0.016357
0.038239 0.540436 0.017426
0.063782 0.542053 0.019196
0.088623 0.543274 0.019562
0.114532 0.544434 0.021332
0.139771 0.546112 0.022705
0.171783 0.547546 0.024323
0.209259 0.548096 0.025360
0.245056 0.549469 0.026367
0.281219 0.550507 0.026855
0.317627 0.550781 0.026825
0.353455 0.552002 0.026428
0.389465 0.552856 0.026611
0.425690 0.553589 0.027008
0.461121 0.554352 0.026459
0.496887 0.555206 0.026794
0.532501 0.555878 0.026184
0.568237 0.557190 0.026123
0.603882 0.558411 0.026276
0.638977 0.561279 0.026764
0.673767 0.563507 0.026031
0.706696 0.565063 0.025604
0.738159 0.566956 0.025848
0.768890 0.568756 0.025909
0.798615 0.570526 0.026062
0.827515 0.572815 0.025665
0.855713 0.575043 0.026031
0.884247 0.576935 0.025970
0.911713 0.579407 0.024994
0.938751 0.581818 0.024200
0.966461 0.584656 0.023987
0.000061 0.573242 0.019073
0.016144 0.575134 0.020721
0.039856 0.576324 0.022095
0.065308 0.577728 0.023407
0.090759 0.578583 0.024414
0.115570 0.580383 0.025970
0.141418 0.581573 0.027466
0.171967 0.582886 0.028870
0.210510 0.583588 0.030060
0.246277 0.584595 0.031067
0.282745 0.585846 0.031586
0.319092 0.586578 0.031799
0.355042 0.586700 0.031769
0.390808 0.587524 0.031860
0.426727 0.588043 0.031677
0.462219 0.588623 0.031891
0.498138 0.589691 0.031952
0.534088 0.591187 0.032043
0.569000 0.591400 0.031647
0.604095 0.591980 0.031555
0.639191 0.593109 0.032013
0.673859 0.595612 0.032532
0.707550 0.598450 0.033112
0.738831 0.599945 0.033295
0.768982 0.602173 0.033356
0.798462 0.603790 0.033203
0.827148 0.605774 0.033661
0.855957 0.608582 0.034729
0.884186 0.609955 0.035004
0.911957 0.612122 0.034454
0.938873 0.614655 0.034332
0.966797 0.617493 0.034790
0.000000 0.608612 0.025116
0.017700 0.609924 0.026001
0.041809 0.611115 0.027069
0.067383 0.612732 0.028412
0.092651 0.613861 0.029968
0.118011 0.615295 0.031647
0.143860 0.616394 0.032654
0.175873 0.617554 0.034241
0.213745 0.618896 0.035553
0.249481 0.619843 0.036621
0.285278 0.620361 0.037384
0.321838 0.621063 0.037811
0.357635 0.621399 0.037384
0.393616 0.621643 0.037506
0.429138 0.622131 0.037689
0.464905 0.623077 0.037933
0.500305 0.623352 0.037506
0.536072 0.624329 0.038025
0.571411 0.624512 0.037720
0.605621 0.625458 0.037750
0.639801 0.626221 0.037964
0.673370 0.627411 0.038330
0.707001 0.629944 0.039429
0.738861 0.632202 0.039520
0.769440 0.634064 0.040558
0.799438 0.636230 0.041321
0.828125 0.638123 0.041504
0.856079 0.640717 0.042450
0.883575 0.642181 0.042297
0.911316 0.644043 0.042908
0.938629 0.646088 0.043732
0.966461 0.648254 0.044220
0.000000 0.643066 0.031006
0.020020 0.644379 0.032684
0.044281 0.645538 0.033630
0.069641 0.647095 0.035156
0.095520 0.648529 0.037231
0.120758 0.649628 0.037964
0.148712 0.650635 0.038727
0.183777 0.652222 0.040405
0.219727 0.652924 0.041809
0.254944 0.653687 0.042847
0.290161 0.654175 0.043823
0.325867 0.654449 0.044037
0.361084 0.655151 0.044220
0.397186 0.655090 0.044067
0.432678 0.655457 0.044556
0.468719 0.656342 0.044647
0.503418 0.657074 0.044586
0.538635 0.657349 0.044495
0.573303 0.657562 0.044556
0.608063 0.658020 0.044312
0.642059 0.658997 0.044678
0.675079 0.659607 0.045258
0.707031 0.660706 0.045441
0.739014 0.662720 0.046906
0.769714 0.665222 0.047577
0.799530 0.667145 0.048523
0.828308 0.669312 0.049530
0.856537 0.671753 0.050049
0.883759 0.673523 0.050446
0.911194 0.674988 0.051239
0.938660 0.677094 0.052094
0.966583 0.679352 0.052307
0.000061 0.676971 0.038391
0.022949 0.678375 0.039825
0.047729 0.679291 0.040863
0.073792 0.680908 0.042572
0.099762 0.681671 0.044495
0.126831 0.683258 0.045288
0.159943 0.684387 0.046844
0.194519 0.685730 0.048187
0.228851 0.686371 0.049530
0.262695 0.687103 0.050201
0.297119 0.687561 0.051361
0.331757 0.687744 0.051788
0.366791 0.688019 0.051575
0.402191 0.688354 0.051697
0.437592 0.688721 0.052246
0.472382 0.689423 0.052124
0.507660 0.689331 0.051880
0.542297 0.689514 0.051483
0.576843 0.690125 0.051666
0.610657 0.690155 0.051300
0.644226 0.690277 0.051910
0.677368 0.691376 0.051514
0.709137 0.691956 0.052673
0.740204 0.692596 0.053314
0.769623 0.695190 0.054138
0.800140 0.697632 0.055725
0.828888 0.699799 0.056671
0.856323 0.701721 0.057129
0.884247 0.703827 0.058624
0.911163 0.705322 0.058960
0.938629 0.707428 0.059967
0.966644 0.709473 0.060333
0.003418 0.710510 0.046722
0.027618 0.711639 0.047943
0.053680 0.712646 0.049194
0.082336 0.713776 0.051300
0.111542 0.715668 0.052643
0.142456 0.716339 0.054108
0.174500 0.717712 0.055603
0.206055 0.718872 0.055939
0.238647 0.719940 0.057343
0.271790 0.720215 0.058197
0.305450 0.720245 0.059204
0.339478 0.720490 0.059723
0.374237 0.720428 0.059814
0.408386 0.720764 0.059845
0.443207 0.720825 0.059906
0.477509 0.721252 0.060120
0.512878 0.721100 0.059143
0.546997 0.721222 0.058960
0.580658 0.720917 0.058777
0.614899 0.721680 0.059387
0.647705 0.721710 0.059296
0.679810 0.722382 0.059326
0.711182 0.723236 0.060059
0.741333 0.723785 0.060486
0.771210 0.724640 0.060852
0.800354 0.726562 0.061951
0.829407 0.728973 0.063660
0.856842 0.730957 0.064423
0.884308 0.733276 0.065948
0.911041 0.734589 0.066071
0.938721 0.736694 0.066925
0.966156 0.738281 0.067749
0.019379 0.743530 0.056091
0.045593 0.744843 0.057831
0.073456 0.745941 0.059601
0.101044 0.747284 0.060760
0.128876 0.748566 0.062317
0.157623 0.749756 0.063477
0.187927 0.750397 0.064453
0.218872 0.751221 0.065430
0.250122 0.751709 0.065948
0.282898 0.752167 0.066803
0.315521 0.752228 0.067688
0.348846 0.752014 0.068085
0.382935 0.752289 0.068146
0.416504 0.752380 0.068085
0.450470 0.752441 0.068024
0.484467 0.752472 0.067780
0.518341 0.752045 0.067932
0.552460 0.752045 0.067169
0.585785 0.751892 0.066345
0.619019 0.751923 0.065826
0.651947 0.752136 0.067352
0.683533 0.752197 0.067017
0.713806 0.753082 0.067627
0.743744 0.753754 0.067596
0.772980 0.754395 0.068176
0.801483 0.755737 0.068665
0.829712 0.757233 0.069794
0.857758 0.759155 0.071289
0.885010 0.761414 0.072479
0.912231 0.762909 0.073334
0.939209 0.764618 0.074371
0.966461 0.766296 0.074707
0.038635 0.775787 0.065582
0.064636 0.777435 0.067627
0.090637 0.778168 0.068787
0.117615 0.779358 0.069763
0.144958 0.780518 0.071228
0.172302 0.782043 0.072632
0.201416 0.782135 0.073639
0.231628 0.782928 0.074249
0.262360 0.783264 0.074890
0.294373 0.783600 0.075317
0.326569 0.783691 0.075867
0.359467 0.783508 0.075989
0.392426 0.783051 0.076385
0.425751 0.782959 0.076111
0.458069 0.782776 0.075500
0.491486 0.782928 0.074860
0.525330 0.782043 0.075287
0.558472 0.782074 0.074860
0.591339 0.782379 0.074890
0.624084 0.782104 0.073944
0.656403 0.781982 0.074036
0.687073 0.782257 0.073883
0.717285 0.782867 0.074188
0.746338 0.783020 0.074371
0.774994 0.783356 0.074890
0.803802 0.784790 0.075684
0.830383 0.785370 0.076263
0.858246 0.786926 0.076935
0.885529 0.788239 0.078003
0.912659 0.790955 0.079681
0.939484 0.792572 0.080780
0.966003 0.793335 0.081085
0.055145 0.807922 0.076447
0.080505 0.809082 0.077484
0.106110 0.810486 0.078918
0.132324 0.811249 0.079407
0.158752 0.812225 0.080475
0.186890 0.813690 0.081543
0.214966 0.813660 0.082245
0.245300 0.813873 0.083191
0.275055 0.814209 0.083374
0.306152 0.814331 0.083557
0.338165 0.813873 0.084442
0.370148 0.813751 0.084381
0.402771 0.813660 0.084381
0.435028 0.813293 0.083710
0.467407 0.812653 0.083649
0.500122 0.812622 0.083374
0.532990 0.811920 0.082458
0.565735 0.811523 0.081818
0.598114 0.811554 0.082031
0.629883 0.811371 0.081573
0.661072 0.811279 0.081024
0.691406 0.811096 0.080811
0.720795 0.811737 0.081207
0.749817 0.812286 0.081085
0.777802 0.811890 0.081573
0.805267 0.812500 0.081818
0.832184 0.813293 0.082153
0.858948 0.814667 0.082703
0.885834 0.815369 0.083099
0.913055 0.817322 0.084503
0.940186 0.819122 0.086365
0.967590 0.819824 0.087311
0.069122 0.839417 0.085419
0.095032 0.840912 0.086853
0.120117 0.841888 0.087860
0.146057 0.843079 0.089050
0.173340 0.843292 0.089294
0.200317 0.844055 0.090149
0.228638 0.844330 0.091248
0.257324 0.844635 0.091614
0.287292 0.844177 0.091705
0.317902 0.844208 0.091980
0.349396 0.844025 0.092163
0.381256 0.843414 0.091705
0.413239 0.842987 0.091309
0.445190 0.842743 0.091400
0.477020 0.841797 0.090546
0.508484 0.841156 0.089813
